packages/swarm-icons/src/icons/line/Settings.svg

<svg xmlns="http://www.w3.org/2000/svg" width="24" height="24" viewBox="0 0 24 24">
  <path fill="#757575" d="M10.5,4.63963971 L10.1246292,4.73625347 C9.44365592,4.91152389 8.79333035,5.18184668 8.19042755,5.53810287 L7.85665181,5.73533147 L6.34314575,4.22182541 L4.22182541,6.34314575 L5.73533147,7.85665181 L5.53810287,8.19042755 C5.18184668,8.79333035 4.91152389,9.44365592 4.73625347,10.1246292 L4.63963971,10.5 L2.5,10.5 L2.5,13.5 L4.63963971,13.5 L4.73625347,13.8753708 C4.91152389,14.5563441 5.18184668,15.2066697 5.53810287,15.8095724 L5.73533147,16.1433482 L4.22182541,17.6568542 L6.34314575,19.7781746 L7.85665181,18.2646685 L8.19042755,18.4618971 C8.79333035,18.8181533 9.44365592,19.0884761 10.1246292,19.2637465 L10.5,19.3603603 L10.5,21.5 L13.5,21.5 L13.5,19.3603603 L13.8753708,19.2637465 C14.5563441,19.0884761 15.2066697,18.8181533 15.8095724,18.4618971 L16.1433482,18.2646685 L17.6568542,19.7781746 L19.7781746,17.6568542 L18.2646685,16.1433482 L18.4618971,15.8095724 C18.8181533,15.2066697 19.0884761,14.5563441 19.2637465,13.8753708 L19.3603603,13.5 L21.5,13.5 L21.5,10.5 L19.3603603,10.5 L19.2637465,10.1246292 C19.0884761,9.44365592 18.8181533,8.79333035 18.4618971,8.19042755 L18.2646685,7.85665181 L19.7781746,6.34314575 L17.6568542,4.22182541 L16.1433482,5.73533147 L15.8095724,5.53810287 C15.2066697,5.18184668 14.5563441,4.91152389 13.8753708,4.73625347 L13.5,4.63963971 L13.5,2.5 L10.5,2.5 L10.5,4.63963971 Z M9.5,2.5 C9.5,1.94771525 9.94771525,1.5 10.5,1.5 L13.5,1.5 C14.0522847,1.5 14.5,1.94771525 14.5,2.5 L14.5,3.87373761 C15.0118049,4.03101573 15.5064165,4.23633012 15.9779787,4.48648744 L16.9497475,3.51471863 C17.3402718,3.12419433 17.9734367,3.12419433 18.363961,3.51471863 L20.4852814,5.63603897 C20.8758057,6.02656326 20.8758057,6.65972824 20.4852814,7.05025253 L19.5135126,8.02202134 C19.7636699,8.49358351 19.9689843,8.98819508 20.1262624,9.5 L21.5,9.5 C22.0522847,9.5 22.5,9.94771525 22.5,10.5 L22.5,13.5 C22.5,14.0522847 22.0522847,14.5 21.5,14.5 L20.1262624,14.5 C19.9689843,15.0118049 19.7636699,15.5064165 19.5135126,15.9779787 L20.4852814,16.9497475 C20.8758057,17.3402718 20.8758057,17.9734367 20.4852814,18.363961 L18.363961,20.4852814 C17.9734367,20.8758057 17.3402718,20.8758057 16.9497475,20.4852814 L15.9779787,19.5135126 C15.5064165,19.7636699 15.0118049,19.9689843 14.5,20.1262624 L14.5,21.5 C14.5,22.0522847 14.0522847,22.5 13.5,22.5 L10.5,22.5 C9.94771525,22.5 9.5,22.0522847 9.5,21.5 L9.5,20.1262624 C8.98819508,19.9689843 8.49358351,19.7636699 8.02202134,19.5135126 L7.05025253,20.4852814 C6.65972824,20.8758057 6.02656326,20.8758057 5.63603897,20.4852814 L3.51471863,18.363961 C3.12419433,17.9734367 3.12419433,17.3402718 3.51471863,16.9497475 L4.48648744,15.9779787 C4.23633012,15.5064165 4.03101573,15.0118049 3.87373761,14.5 L2.5,14.5 C1.94771525,14.5 1.5,14.0522847 1.5,13.5 L1.5,10.5 C1.5,9.94771525 1.94771525,9.5 2.5,9.5 L3.87373761,9.5 C4.03101573,8.98819508 4.23633012,8.49358351 4.48648744,8.02202134 L3.51471863,7.05025253 C3.12419433,6.65972824 3.12419433,6.02656326 3.51471863,5.63603897 L5.63603897,3.51471863 C6.02656326,3.12419433 6.65972824,3.12419433 7.05025253,3.51471863 L8.02202134,4.48648744 C8.49358351,4.23633012 8.98819508,4.03101573 9.5,3.87373761 L9.5,2.5 Z M12,15.5 C10.0670034,15.5 8.5,13.9329966 8.5,12 C8.5,10.0670034 10.0670034,8.5 12,8.5 C13.9329966,8.5 15.5,10.0670034 15.5,12 C15.5,13.9329966 13.9329966,15.5 12,15.5 Z M12,14.5 C13.3807119,14.5 14.5,13.3807119 14.5,12 C14.5,10.6192881 13.3807119,9.5 12,9.5 C10.6192881,9.5 9.5,10.6192881 9.5,12 C9.5,13.3807119 10.6192881,14.5 12,14.5 Z"/>
</svg>

<svg xmlns="http://www.w3.org/2000/svg" width="24" height="24"><path fill="#757575" d="M10.5 4.64l-.375.096a7.452 7.452 0 00-1.935.802l-.333.197-1.514-1.513-2.121 2.121 1.513 1.514-.197.333a7.452 7.452 0 00-.802 1.935l-.096.375H2.5v3h2.14l.096.375c.176.681.446 1.332.802 1.935l.197.333-1.513 1.514 2.121 2.121 1.514-1.513.333.197a7.452 7.452 0 001.935.802l.375.096v2.14h3v-2.14l.375-.096a7.452 7.452 0 001.935-.802l.333-.197 1.514 1.513 2.121-2.121-1.513-1.514.197-.333a7.452 7.452 0 00.802-1.935l.096-.375h2.14v-3h-2.14l-.096-.375a7.452 7.452 0 00-.802-1.935l-.197-.333 1.513-1.514-2.121-2.121-1.514 1.513-.333-.197a7.452 7.452 0 00-1.935-.802L13.5 4.64V2.5h-3v2.14zm-1-2.14a1 1 0 011-1h3a1 1 0 011 1v1.374a8.45 8.45 0 011.478.612l.972-.971a1 1 0 011.414 0l2.121 2.121a1 1 0 010 1.414l-.971.972c.25.472.455.966.612 1.478H21.5a1 1 0 011 1v3a1 1 0 01-1 1h-1.374a8.45 8.45 0 01-.612 1.478l.971.972a1 1 0 010 1.414l-2.121 2.121a1 1 0 01-1.414 0l-.972-.971a8.45 8.45 0 01-1.478.612V21.5a1 1 0 01-1 1h-3a1 1 0 01-1-1v-1.374a8.45 8.45 0 01-1.478-.612l-.972.971a1 1 0 01-1.414 0l-2.121-2.121a1 1 0 010-1.414l.971-.972a8.45 8.45 0 01-.612-1.478H2.5a1 1 0 01-1-1v-3a1 1 0 011-1h1.374a8.45 8.45 0 01.612-1.478l-.971-.972a1 1 0 010-1.414l2.121-2.121a1 1 0 011.414 0l.972.971A8.45 8.45 0 019.5 3.874V2.5zm2.5 13a3.5 3.5 0 110-7 3.5 3.5 0 010 7zm0-1a2.5 2.5 0 100-5 2.5 2.5 0 000 5z"/></svg>
